rospo-newyear-light/symbolic/status/folder-drag-accept-symbolic.svg

<svg height="16" width="16" xmlns="http://www.w3.org/2000/svg"><path d="m2 1s-1 0-1 1v5c0-1 1-1 1-1h5l2 2h5s1 0 1 1v-5c0-1-1-1-1-1h-5l-2-2z" fill="#5c616c" opacity=".3"/><path d="m2 7s-1 0-1 1v5s0 1 1 1h12s1 0 1-1v-3c0-1-1-1-1-1h-5l-2-2z" fill="#5c616c"/></svg>

<svg xmlns="http://www.w3.org/2000/svg" width="16" height="16" version="1.1">
 <path style="opacity:0.3;fill:#5c616c" d="M 2,1 C 2,1 1,1 1,2 V 7 C 1,6 2,6 2,6 H 7 L 9,8 H 14 C 14,8 15,8 15,9 V 4 C 15,3 14,3 14,3 H 9 L 7,1 Z"/>
 <path style="fill:#5c616c" d="M 2,7 C 2,7 1,7 1,8 V 13 C 1,13 1,14 2,14 H 14 C 14,14 15,14 15,13 V 10 C 15,9 14,9 14,9 H 9 L 7,7 Z"/>
</svg>
